workspaces/osm/styles/symbols/shop/car_repair.svg

<?xml version="1.0" encoding="UTF-8" standalone="no"?>
<!-- Created with Inkscape (http://www.inkscape.org/) -->

<svg
   xmlns:dc="http://purl.org/dc/elements/1.1/"
   xmlns:cc="http://creativecommons.org/ns#"
   xmlns:rdf="http://www.w3.org/1999/02/22-rdf-syntax-ns#"
   xmlns:svg="http://www.w3.org/2000/svg"
   xmlns="http://www.w3.org/2000/svg"
   version="1.1"
   width="14"
   height="14"
   viewBox="0 0 14 14"
   id="svg2">
  <metadata
     id="metadata8">
    <rdf:RDF>
      <cc:Work
         rdf:about="">
        <dc:format>image/svg+xml</dc:format>
        <dc:type
           rdf:resource="http://purl.org/dc/dcmitype/StillImage" />
        <dc:title></dc:title>
      </cc:Work>
    </rdf:RDF>
  </metadata>
  <defs
     id="defs6" />
  <rect
     width="14"
     height="14"
     x="0"
     y="0"
     id="canvas"
     style="fill:none;stroke:none;visibility:hidden" />
  <path
     d="M 10.499796,0 C 9.5744741,0 8.7758482,0.502762 8.3435925,1.25 l -5.8436247,0 C 1.6222327,1.25 1,1.7711864 1,2.5 1,3.2288136 1.6034191,3.75 2.4999678,3.75 l 5.8436247,0 C 8.7758482,4.4972377 9.5744741,5 10.499796,5 11.425119,5 12.223744,4.4972377 12.656,3.75 l -1.656214,0 L 9.4998177,2.5 10.999786,1.25 12.656,1.25 C 12.223744,0.5027623 11.425119,0 10.499796,0 z M 2.4999678,2 C 2.7761039,2 2.9999571,2.2238576 2.9999571,2.5 2.9999571,2.7761424 2.7761039,3 2.4999678,3 2.2238318,3 1.9999786,2.7761424 1.9999786,2.5 1.9999786,2.2238576 2.2238318,2 2.4999678,2 z M 3.9999357,6 2.9999571,9 C 2.5273012,9 1.9999786,9.384295 1.9999786,10 l 0,3 0.9999785,0 c 0,0 0,1 0.9999786,1 0.9999785,0 0.9999785,-1 0.9999785,-1 l 3.9999142,0 c 0,0 0,1 0.9999786,1 0.999979,0 0.999979,-1 0.999979,-1 l 0.999978,0 0,-3 c 0,-0.520606 -0.455415,-1 -0.999978,-1 L 9.999807,6 3.9999357,6 z M 4.9999142,7 8.9998284,7 9.624815,9 4.3749276,9 4.9999142,7 z m -0.9999785,3.25 c 0.4142051,0 0.7499839,0.335786 0.7499839,0.75 0,0.414214 -0.3357788,0.75 -0.7499839,0.75 -0.4142052,0 -0.749984,-0.335786 -0.749984,-0.75 0,-0.414214 0.3357788,-0.75 0.749984,-0.75 z m 5.9998713,0 c 0.414205,0 0.749984,0.335786 0.749984,0.75 0,0.414214 -0.335779,0.75 -0.749984,0.75 -0.4142051,0 -0.7499839,-0.335786 -0.7499839,-0.75 0,-0.414214 0.3357788,-0.75 0.7499839,-0.75 z"
     id="repair-car" />
</svg>

<svg width="14" height="14" version="1.1" viewBox="0 0 14 14" xmlns="http://www.w3.org/2000/svg"><rect id="a" width="14" height="14" fill="none" visibility="hidden"/><path id="b" d="m10.5 0c-0.87534-0.010658-1.7266 0.48961-2.1562 1.25-1.9884 0.00226-3.977-0.00452-5.9653 0.0034-0.63225 0.00962-1.3129 0.43936-1.3711 1.1125-0.089 0.60564 0.36883 1.1792 0.94973 1.3126 0.48179 0.12044 0.98224 0.054503 1.4736 0.071537h4.9131c0.50329 0.90409 1.606 1.4155 2.6209 1.2068 0.70491-0.12893 1.3367-0.58577 1.6915-1.2068h-1.6562c-0.49999-0.41667-0.99998-0.83333-1.5-1.25 0.49999-0.41667 0.99998-0.83333 1.5-1.25h1.6562c-0.43259-0.76222-1.2774-1.2592-2.1562-1.25zm-7.9998 2c0.4061-0.021118 0.66037 0.51812 0.38582 0.81805-0.24076 0.32462-0.81447 0.18216-0.87565-0.21728-0.069754-0.29987 0.18194-0.60883 0.48983-0.60077zm1.5 4-0.99998 3c-0.5691-0.0070469-1.0652 0.52988-0.99998 1.099v2.901h0.99998c-0.00185 0.48421 0.35454 0.97669 0.86585 0.99361 0.44803 0.06641 0.94142-0.17734 1.0671-0.63259 0.047497-0.21654 0.029389-0.43734 0.30463-0.36102h3.7623c-0.00185 0.48421 0.35454 0.97669 0.86585 0.99361 0.44803 0.06641 0.94142-0.17734 1.0671-0.63259 0.0475-0.21654 0.02939-0.43734 0.30463-0.36102h0.76239c-0.0034-1.0323 0.0069-2.065-0.0052-3.097-0.050791-0.48917-0.49947-0.9068-0.99478-0.90298-0.33333-1-0.66665-2-0.99998-3h-5.9999zm0.99998 1h3.9999c0.20833 0.66667 0.41666 1.3333 0.62499 2h-5.2499c0.20833-0.66667 0.41666-1.3333 0.62499-2zm-0.99998 3.25c0.54625-0.02492 0.94158 0.63899 0.65946 1.1075-0.23691 0.48716-0.99871 0.52405-1.2814 0.061837-0.34177-0.47559 0.035693-1.1866 0.6219-1.1693zm5.9999 0c0.54625-0.02492 0.94158 0.63899 0.65946 1.1075-0.23691 0.48716-0.99871 0.52405-1.2814 0.06184-0.34177-0.4756 0.035693-1.1866 0.6219-1.1693z"/></svg>
